X:2801
T:A Trip O'er The Tweed
P:The Misses Little's Fancy
C:Jenkins
R:Jig (4x48) AABBAB
B:RSCDS 28-1
Z:Anselm Lingnau <anselm@strathspey.org>
M:6/8
L:1/8
K:A
|:A//B//c//d//|"A"e3 "D"f2e|"A"eaf ecA|"E7"dcB "A"cBA|"Bm"FBB "E7"B2 c|
    "A"AcA "E"BdB|"A"cec "D"faf|"A"ecA E2[EC]|"D"[FD]AA "A"[A2E2C2]:|
|:E|"A"CEE "Bm7"DFF|"A7"EGG "D"FAA|"E"GBB "F#m"Acc|"E7"dBB B3|
    "A"AcA "E"BdB|"A"cec "D"faf|"A"ecA "D"F2 E|"D"FA[AD] "A"[A2C2]:|

